assets/tab/tab_recently.svg

<svg height="20" viewBox="0 0 20 20" width="20" xmlns="http://www.w3.org/2000/svg"><path d="m311.000724 10.0000203c-2.65399-.00535426-5.200827 1.04656-7.077485 2.9232183-1.876659 1.8766583-2.928573 4.4234952-2.923219 7.0774853 0 5.5383074 4.514318 9.9992586 10.000704 9.9992586 2.65349.0049719 5.199736-1.0469142 7.07604-2.9232183s2.92819-4.4225502 2.923218-7.0760403c0-5.5383073-4.512872-10.0007036-9.999258-10.0007036zm6.511838 13.0251387c-.124847.2835962-.406969.4652441-.716807.4615816-.103843 0-.206244 0-.308645-.0505354l-5.897432-2.6667527c-.278621-.1313616-.457818-.4102369-.461526-.7182492v-5.5383073c0-.409604.360567-.7687286.770171-.7687286s.768729.3591246.768729.7687286v5.0767817l5.435906 2.4619507c.409604.1543226.563926.5639266.409604.9735306z" fill="#d1e0f3" transform="translate(-301 -10)"/></svg>

<?xml version="1.0" encoding="UTF-8"?>
<svg width="20px" height="20px" viewBox="0 0 20 20" version="1.1" xmlns="http://www.w3.org/2000/svg" xmlns:xlink="http://www.w3.org/1999/xlink">
    <title>形状</title>
    <g id="页面-1" stroke="none" stroke-width="1" fill="none" fill-rule="evenodd">
        <g id="我的-我喜欢" transform="translate(-301.000000, -738.000000)" fill="#D1E0F3" fill-rule="nonzero">
            <g id="编组-8" transform="translate(0.000000, 728.000000)">
                <path d="M311.000724,10.0000203 C308.346734,9.99466604 305.799897,11.0465803 303.923239,12.9232386 C302.04658,14.7998969 300.994666,17.3467338 301.00002,20.0007239 C301.00002,25.5390313 305.514338,29.9999825 311.000724,29.9999825 C313.654214,30.0049544 316.20046,28.9530683 318.076764,27.0767642 C319.953068,25.2004601 321.004954,22.654214 320.999982,20.0007239 C320.999982,14.4624166 316.48711,10.0000203 311.000724,10.0000203 Z M317.512562,23.025159 C317.387715,23.3087552 317.105593,23.4904031 316.795755,23.4867406 C316.691912,23.4867406 316.589511,23.4867406 316.48711,23.4362052 L310.589678,20.7694525 C310.311057,20.6380909 310.13186,20.3592156 310.128152,20.0512033 L310.128152,14.512896 C310.128152,14.103292 310.488719,13.7441674 310.898323,13.7441674 C311.307927,13.7441674 311.667052,14.103292 311.667052,14.512896 L311.667052,19.5896777 L317.102958,22.0516284 C317.512562,22.205951 317.666884,22.615555 317.512562,23.025159 L317.512562,23.025159 Z" id="形状"></path>
            </g>
        </g>
    </g>
</svg>
